X:1
T:Spancil Hill
C:Michael Considine
M:3/4
L:1/4
K:C
% 1
      A | A2 D | A2 A | (G2 E) | C2 D | (E G) E |  D2   D | ( D3 |
% 9
 D2)  A | A2 d | d2 e | (d2 c) | A2 B |  c2   d | (c B) A | ( G3 |
% 17
 G2)  G | A2 d | d2 e | (d2 c) | A2 B |  c2   d | (c B) A | ( G3 |
% 25
 G) c B | A2 D | A2 A |  G2 E  | C2 D | (E G) E |  D2   D | ( D3 | D2) ||
